azure-icons/command-1029-Tasks.svg

<svg xmlns="http://www.w3.org/2000/svg" viewBox="0 0 12 16"><path d="M12 2v14H0V2h4a2.4 2.4 0 01.2-.8l.4-.6.6-.4L6 0l.8.2.6.4.4.6A2.4 2.4 0 018 2zm-1 1h-1v2H2V3H1v12h10zM2 7h1v1H2zm0 3h1v1H2zm0 3h1v1H2zm1-9h6V3H7V2a.6.6 0 00-.1-.4c0-.1-.1-.2-.2-.3l-.3-.2h-.8l-.3.2c-.1.1-.2.2-.2.3A.6.6 0 005 2v1H3zm1 3h6v1H4zm0 3h6v1H4zm0 3h6v1H4z"/></svg>

<svg xmlns="http://www.w3.org/2000/svg" viewBox="0 0 12 16"><title>Asset 81</title><path d="M12,2V16H0V2H4a2.4,2.4,0,0,1,.2-.8L4.6.6,5.2.2,6,0l.8.2.6.4.4.6A2.4,2.4,0,0,1,8,2ZM11,3H10V5H2V3H1V15H11ZM2,7H3V8H2Zm0,3H3v1H2Zm0,3H3v1H2ZM3,4H9V3H7V2a.6.6,0,0,0-.1-.4c0-.1-.1-.2-.2-.3l-.3-.2H5.6l-.3.2c-.1.1-.2.2-.2.3A.6.6,0,0,0,5,2V3H3ZM4,7h6V8H4Zm0,3h6v1H4Zm0,3h6v1H4Z"/></svg>
